static/assets/template/assets/img/icons/clothing/hat.svg

<svg viewBox="0 0 120 60" xmlns="http://www.w3.org/2000/svg"><path d="m116 51a3 3 0 0 0 -3-3h-106a3 3 0 0 0 -3 3v2a3 3 0 0 0 3 3h106a3 3 0 0 0 3-3zm-15.9-21h-80.2a131.93 131.93 0 0 0 -3.59 16h87.38a131.93 131.93 0 0 0 -3.59-16zm-17.67-26c-7.77 0-10.69 4.06-22.43 4.06s-14.65-4.06-22.43-4.06c-6.11 0-12.57 9.59-17.07 24h79c-4.5-14.41-10.96-24-17.07-24zm30.57 56h-106a7 7 0 0 1 -7-7v-2a7 7 0 0 1 7-7h5.59c1.91-11.14 5-21.36 8.74-29.07 4.77-9.77 10.38-14.93 16.24-14.93a29.78 29.78 0 0 1 10 1.92 35.48 35.48 0 0 0 12.43 2.14 35.49 35.49 0 0 0 12.43-2.14 29.72 29.72 0 0 1 10-1.92c5.86 0 11.48 5.16 16.24 14.93 3.77 7.71 6.83 17.93 8.74 29.07h5.59a7 7 0 0 1 7 7v2a7 7 0 0 1 -7 7z" fill-rule="evenodd"/></svg>

<svg xmlns="http://www.w3.org/2000/svg" viewBox="0 0 120 60"><defs><style>.cls-1{fill-rule:evenodd;}</style></defs><title>hat</title><g id="Layer_2" data-name="Layer 2"><g id="Layer"><path class="cls-1" d="M116,51a3,3,0,0,0-3-3H7a3,3,0,0,0-3,3v2a3,3,0,0,0,3,3H113a3,3,0,0,0,3-3ZM100.1,30H19.9a131.93,131.93,0,0,0-3.59,16h87.38A131.93,131.93,0,0,0,100.1,30ZM82.43,4C74.66,4,71.74,8.06,60,8.06S45.35,4,37.57,4C31.46,4,25,13.59,20.5,28h79C95,13.59,88.54,4,82.43,4ZM113,60H7a7,7,0,0,1-7-7V51a7,7,0,0,1,7-7h5.59c1.91-11.14,5-21.36,8.74-29.07C26.1,5.16,31.71,0,37.57,0a29.78,29.78,0,0,1,10,1.92A35.48,35.48,0,0,0,60,4.06,35.49,35.49,0,0,0,72.43,1.92,29.72,29.72,0,0,1,82.43,0c5.86,0,11.48,5.16,16.24,14.93,3.77,7.71,6.83,17.93,8.74,29.07H113a7,7,0,0,1,7,7v2A7,7,0,0,1,113,60Z"/></g></g></svg>
